X:57
T:Black Boy Alley
C:Johnson, 1744
N:Also for the dance "PentaJig" by Julian Hill.
N:Tom Cook prints this as AABA, possibly so at to end on the tonic.
N:I believe the original was in G minor.
S:Colin Hume's website,  colinhume.com  - chords can also be printed below the stave.
Q:3/8=100
M:6/8
L:1/8
K:G
P:A
|: "Em"B2G F2E | "Em"GBe BGE | "Em"B2G F2E | "Am"B2E "B7"^D2B, |\
"Em"B(e/f/g) "Am"A2G | "D"F(d/e/f) "B7"G2F | "Am"E(A/B/c) "Em/B"B2A | "B7"GAF "Em"E3 :|
P:B
|: "G"G2B d2D | "G"GBd dBG | "D7"A2c f2A | "E7"^GBe eBG |\
"F#7"A2^cf2e | "Bm"d^cB "F#7"^c^AF | "Bm"B2^c "Em"def | "F#7"^c3 "Bm"B3 :|

